X:1
T:O Tell the Sweet Old Story
T:O Tell the Sweet Old Story
T:Powell George Fithian
T:William Clark Martin, 1901
T:Public Domain Courtesy of the Cyber Hymnal™
T:Public Domain Courtesy of the Cyber Hymnal™
C:Powell George Fithian
Z:Public Domain
Z:Courtesy of the Cyber Hymnal™
%%score ( 1 2 ) ( 3 4 )
L:1/8
Q:1/4=90
M:4/4
K:C
V:1 treble 
V:2 treble 
V:3 bass 
V:4 bass 
V:1
 G2 | [Ec][EB][EA][EG] [EA][EG][CE][DF] | [EG]EC[EA] [EG]3 G | [Ec][EB][EA][EG] [EA][EG]FE | %4
w: 1.~O|tell me o’er and o’er a- gain the|tale I love so well, Of|how the King of glo- ry left His|
w: 2.~I|am both weak and sin- ful, but one|thing I sure- ly know, That|Je- sus fills my heart with grace and|
w: 3.~O|tell a- gain the sto- ry of His|mer- cy and His grace, The|sto- ry that is told of Him a-|
 A4- [DA]2 A2 | [Fd][Fc][FB][FA] [FB][FA][B,G][B,F] | [CE][DF][EG][^DA] [EG]2 (^FE) | %7
w: throne, And came|a hum- ble man a- mong our sin-|ful race to dwell, That He *|
w: love, That He|will guide me safe- ly thro’ my jour-|ney here be- low, And then *|
w: lone; Of how|He died in tor- ment, in the help-|less sin- ner’s place, And con- *|
 [B,D][B,E][B,^F][B,G] AB[Dc][FA] | d4- [=Fd]3 ||"^Refrain" G | [EA][EG][CE][DF] [EG][Ec][Ec][EA] | %11
w: might save and claim us for His own.||||
w: will take me to Him- self a- bove.|O tell||the sweet old sto- ry once a- gain,|
w: quered and is now up- on His throne.||||
 B6 ([FBf][FBe] [Ff]2) z G | [EA][Ec][Fd][F^c] [Fe][Fd][FB][FG] | e4- ([EG][EG][EG] [EGe]3) [Ge] | %14
w: |||
w: Of how * * the|Sav- ior loved the sons of men; He|loved * * * * them,|
w: |||
"^Parts" [Ge][Ge][Gf][Ge] [^FA]2 (Bc) | [Fd][Fd][Fe][Fd] [EG]3 [EG] | %16
w: ||
w: * oh, so well, He came *|on earth to dwell; O tell|
w: ||
 [FA][Fc][^DB][DA] [EG][^FA][=FB][Ec] | [^FA]2 [=FB]2 !fermata![Ec]2 |] %18
w: ||
w: the sweet old Gos- pel sto- ry once|a- gain. *|
w: ||
V:2
 G2 | x8 | x EC x3 G x | x6 ^C2 | (A,D^CE x A2) x | x8 | x6 _B,2 | x4 D2 x2 | DG^FF x3 || G | x8 | %11
 (F F G) x9 | x8 | E x10 | x6 ^F2 | x8 | x8 | x6 |] %18
V:3
 G,2 | C,G,G,,G, C,G,G,,G, | C,G,G,,G, (C,G,G,,)G, | C,G,G,,G, B,,G,A,,G, | %4
 ([D,F,]2 [E,G,]2 [F,A,]2) z2 | D,A,D,A, A,,G,D,G, | C,G,C,^F, (C,G,) (^C,G,) | D,G,D,G, ^F,G,A,C | %8
 ([G,B,]2 [A,C]2 [G,B,]3) || z | C,G,G,,G, C,G,G,,G, | (D,G,G,,G,D,G,) (G,,G,) x4 | %12
 D,G,G,,G, D,G,G,,G, | (C,G,G,,G, C,3) [C,C] x3 | [A,^C][A,C][A,C][A,C] [D,=C]2 [D,C]2 | %15
 [G,B,][G,B,][G,B,][G,B,] [C,C]3 [C,C] | [F,C][F,A,][=F,B,][F,C] [G,C][G,^D][G,=D][G,C] | %17
 [D,C]2 G,2 !fermata![C,G,]2 |] %18
V:4
 G,2 | x8 | x8 | x8 | x8 | x8 | x8 | x4 D,2 D,2 | x7 || x | x8 | x12 | x8 | x11 | x8 | x8 | x8 | %17
 x2 G,2 x2 |] %18

